svg/chevron_triple_down.svg

<svg xmlns="http://www.w3.org/2000/svg" viewBox="0 0 24 24"><path d="M7.41 14.58 12 19.17l4.59-4.59L18 16l-6 6-6-6zm0-6L12 13.17l4.59-4.59L18 10l-6 6-6-6zm0-6L12 7.17l4.59-4.59L18 4l-6 6-6-6z"/></svg>

<?xml version="1.0" encoding="UTF-8"?><!DOCTYPE svg PUBLIC "-//W3C//DTD SVG 1.1//EN" "http://www.w3.org/Graphics/SVG/1.1/DTD/svg11.dtd"><svg xmlns="http://www.w3.org/2000/svg" xmlns:xlink="http://www.w3.org/1999/xlink" version="1.1" id="mdi-chevron-triple-down" width="24" height="24" viewBox="0 0 24 24"><path d="M7.41,14.58L12,19.17L16.59,14.58L18,16L12,22L6,16L7.41,14.58M7.41,8.58L12,13.17L16.59,8.58L18,10L12,16L6,10L7.41,8.58M7.41,2.58L12,7.17L16.59,2.58L18,4L12,10L6,4L7.41,2.58Z" /></svg>
